epam-assets/icon-sources/18/file-import.svg

<svg width="18" height="18" viewBox="0 0 18 18" fill="none" xmlns="http://www.w3.org/2000/svg">
<g id="18/file-import">
<path id="icon" d="M4.5 15C4.0875 15 3.7345 14.8533 3.441 14.5597C3.147 14.2657 3 13.9125 3 13.5V11.25H4.5V13.5H13.5V11.25H15V13.5C15 13.9125 14.8533 14.2657 14.5597 14.5597C14.2657 14.8533 13.9125 15 13.5 15H4.5ZM9 12L5.25 8.25L6.3 7.1625L8.25 9.1125V3H9.75V9.1125L11.7 7.1625L12.75 8.25L9 12Z" fill="#6C6F80"/>
</g>
</svg>

<svg xmlns="http://www.w3.org/2000/svg" width="18" height="18" fill="none" viewBox="0 0 18 18">
  <path fill="#6C6F80" d="M4.5 15c-.412 0-.765-.147-1.059-.44A1.445 1.445 0 0 1 3 13.5v-2.25h1.5v2.25h9v-2.25H15v2.25c0 .412-.147.766-.44 1.06a1.45 1.45 0 0 1-1.06.44h-9ZM9 12 5.25 8.25 6.3 7.162l1.95 1.95V3h1.5v6.113l1.95-1.95 1.05 1.087L9 12Z"/>
</svg>
